src/img/logo/logo.svg

<svg width="197" height="53" viewBox="0 0 197 53" fill="none" xmlns="http://www.w3.org/2000/svg">
<path d="M6.87602 13.8399H10.8L17.028 42.9999H13.176L11.844 35.6559H5.90402L4.50002 42.9999H0.684021L6.87602 13.8399ZM11.304 32.7399L8.85602 19.5999L6.44402 32.7399H11.304ZM27.5108 43.3239C25.4708 43.3239 23.8748 42.9159 22.7228 42.0999C21.5948 41.2839 20.8148 40.1439 20.3828 38.6799C19.9508 37.2159 19.7348 35.3799 19.7348 33.1719V13.8399H23.6228V33.3519C23.6228 35.5599 23.8748 37.2399 24.3788 38.3919C24.9068 39.5439 25.9508 40.1199 27.5108 40.1199C29.0708 40.1199 30.1028 39.5439 30.6068 38.3919C31.1348 37.2399 31.3988 35.5599 31.3988 33.3519V13.8399H35.2508V33.1719C35.2508 35.3799 35.0348 37.2159 34.6028 38.6799C34.1708 40.1439 33.3908 41.2839 32.2628 42.0999C31.1348 42.9159 29.5508 43.3239 27.5108 43.3239ZM42.7376 16.8639H37.8056V13.8399H51.5936V16.8639H46.8056V42.9999H42.7376V16.8639ZM61.8567 43.3239C59.0007 43.3239 56.9487 42.5199 55.7007 40.9119C54.4767 39.2799 53.8647 36.9279 53.8647 33.8559V22.8039C53.8647 19.7799 54.4887 17.4879 55.7367 15.9279C56.9847 14.3679 59.0247 13.5879 61.8567 13.5879C64.6887 13.5879 66.7167 14.3799 67.9407 15.9639C69.1887 17.5239 69.8127 19.8039 69.8127 22.8039V33.8919C69.8127 36.9159 69.1887 39.2439 67.9407 40.8759C66.6927 42.5079 64.6647 43.3239 61.8567 43.3239ZM61.8567 40.1199C63.3687 40.1199 64.3887 39.6759 64.9167 38.7879C65.4447 37.8999 65.7087 36.5559 65.7087 34.7559V21.9759C65.7087 20.1999 65.4447 18.8919 64.9167 18.0519C64.3887 17.1879 63.3687 16.7559 61.8567 16.7559C60.3207 16.7559 59.2887 17.1879 58.7607 18.0519C58.2327 18.8919 57.9687 20.1999 57.9687 21.9759V34.7559C57.9687 36.5559 58.2327 37.8999 58.7607 38.7879C59.2887 39.6759 60.3207 40.1199 61.8567 40.1199ZM82.0375 13.8399H93.3415V16.8639H86.1055V26.5119H91.9735V29.3919H86.1055V40.0839H93.4135V42.9999H82.0375V13.8399ZM100.982 27.7359L95.0057 13.8399H98.7857L103.214 24.1359L107.246 13.8399H111.026L104.906 28.0599L111.314 42.9999H107.534L102.782 32.0199L98.6777 42.9999H94.8977L100.982 27.7359ZM114.065 13.8399H121.301C123.821 13.8399 125.645 14.5239 126.773 15.8919C127.925 17.2599 128.501 19.2639 128.501 21.9039C128.501 24.2799 127.889 26.1279 126.665 27.4479C125.441 28.7679 123.665 29.4279 121.337 29.4279H118.133V42.9999H114.065V13.8399ZM120.005 26.5119C121.205 26.5119 122.129 26.3799 122.777 26.1159C123.449 25.8519 123.929 25.3959 124.217 24.7479C124.505 24.0999 124.649 23.1639 124.649 21.9399C124.649 20.4519 124.541 19.3599 124.325 18.6639C124.109 17.9679 123.677 17.4759 123.029 17.1879C122.405 16.8999 121.409 16.7559 120.041 16.7559H118.133V26.5119H120.005ZM131.362 13.8399H137.23C140.182 13.8399 142.342 14.4519 143.71 15.6759C145.102 16.8759 145.798 18.8439 145.798 21.5799C145.798 25.3239 144.598 27.5919 142.198 28.3839L146.338 42.9999H142.414L138.598 29.3199H135.43V42.9999H131.362V13.8399ZM136.978 26.4039C138.73 26.4039 139.978 26.0559 140.722 25.3599C141.49 24.6639 141.874 23.4039 141.874 21.5799C141.874 20.3799 141.742 19.4439 141.478 18.7719C141.214 18.0759 140.746 17.5719 140.074 17.2599C139.402 16.9239 138.454 16.7559 137.23 16.7559H135.43V26.4039H136.978ZM150.03 13.8399H161.334V16.8639H154.098V26.5119H159.966V29.3919H154.098V40.0839H161.406V42.9999H150.03V13.8399ZM171.566 43.3239C169.118 43.3239 167.246 42.5679 165.95 41.0559C164.678 39.5439 163.97 37.4679 163.826 34.8279L167.426 33.8559C167.546 35.7279 167.906 37.2399 168.506 38.3919C169.13 39.5439 170.15 40.1199 171.566 40.1199C172.622 40.1199 173.414 39.8319 173.942 39.2559C174.494 38.6559 174.77 37.8039 174.77 36.6999C174.77 35.4999 174.518 34.5039 174.014 33.7119C173.51 32.9199 172.706 32.0439 171.602 31.0839L166.706 26.7639C165.722 25.8999 165.002 24.9759 164.546 23.9919C164.114 22.9839 163.898 21.7599 163.898 20.3199C163.898 18.1839 164.51 16.5279 165.734 15.3519C166.958 14.1759 168.626 13.5879 170.738 13.5879C173.042 13.5879 174.782 14.1999 175.958 15.4239C177.134 16.6479 177.842 18.5439 178.082 21.1119L174.626 22.0479C174.506 20.3439 174.17 19.0359 173.618 18.1239C173.09 17.1879 172.13 16.7199 170.738 16.7199C169.706 16.7199 168.914 16.9959 168.362 17.5479C167.81 18.0759 167.534 18.8679 167.534 19.9239C167.534 20.7879 167.678 21.5199 167.966 22.1199C168.254 22.6959 168.746 23.2839 169.442 23.8839L174.374 28.2039C175.646 29.3319 176.654 30.5559 177.398 31.8759C178.166 33.1959 178.55 34.6959 178.55 36.3759C178.55 38.5119 177.902 40.2039 176.606 41.4519C175.31 42.6999 173.63 43.3239 171.566 43.3239ZM188.582 43.3239C186.134 43.3239 184.262 42.5679 182.966 41.0559C181.694 39.5439 180.986 37.4679 180.842 34.8279L184.442 33.8559C184.562 35.7279 184.922 37.2399 185.522 38.3919C186.146 39.5439 187.166 40.1199 188.582 40.1199C189.638 40.1199 190.43 39.8319 190.958 39.2559C191.51 38.6559 191.786 37.8039 191.786 36.6999C191.786 35.4999 191.534 34.5039 191.03 33.7119C190.526 32.9199 189.722 32.0439 188.618 31.0839L183.722 26.7639C182.738 25.8999 182.018 24.9759 181.562 23.9919C181.13 22.9839 180.914 21.7599 180.914 20.3199C180.914 18.1839 181.526 16.5279 182.75 15.3519C183.974 14.1759 185.642 13.5879 187.754 13.5879C190.058 13.5879 191.798 14.1999 192.974 15.4239C194.15 16.6479 194.858 18.5439 195.098 21.1119L191.642 22.0479C191.522 20.3439 191.186 19.0359 190.634 18.1239C190.106 17.1879 189.146 16.7199 187.754 16.7199C186.722 16.7199 185.93 16.9959 185.378 17.5479C184.826 18.0759 184.55 18.8679 184.55 19.9239C184.55 20.7879 184.694 21.5199 184.982 22.1199C185.27 22.6959 185.762 23.2839 186.458 23.8839L191.39 28.2039C192.662 29.3319 193.67 30.5559 194.414 31.8759C195.182 33.1959 195.566 34.6959 195.566 36.3759C195.566 38.5119 194.918 40.2039 193.622 41.4519C192.326 42.6999 190.646 43.3239 188.582 43.3239Z" fill="#21062A"/>
<path d="M0 5.5H80" stroke="#21062A" stroke-width="3"/>
<path d="M0 48.5H80" stroke="#21062A" stroke-width="3"/>
</svg>

<svg width="197" height="53" fill="none" xmlns="http://www.w3.org/2000/svg"><path d="M6.876 13.84H10.8L17.028 43h-3.852l-1.332-7.344h-5.94L4.5 43H.684l6.192-29.16zm4.428 18.9L8.856 19.6 6.444 32.74h4.86zm16.207 10.584c-2.04 0-3.636-.408-4.788-1.224-1.128-.816-1.908-1.956-2.34-3.42-.432-1.464-.648-3.3-.648-5.508V13.84h3.888v19.512c0 2.208.252 3.888.756 5.04.528 1.152 1.572 1.728 3.132 1.728s2.592-.576 3.096-1.728c.528-1.152.792-2.832.792-5.04V13.84h3.852v19.332c0 2.208-.216 4.044-.648 5.508-.432 1.464-1.212 2.604-2.34 3.42-1.128.816-2.712 1.224-4.752 1.224zm15.227-26.46h-4.932V13.84h13.788v3.024h-4.788V43h-4.068V16.864zm19.119 26.46c-2.856 0-4.908-.804-6.156-2.412-1.224-1.632-1.836-3.984-1.836-7.056V22.804c0-3.024.624-5.316 1.872-6.876 1.248-1.56 3.288-2.34 6.12-2.34 2.832 0 4.86.792 6.084 2.376 1.248 1.56 1.872 3.84 1.872 6.84v11.088c0 3.024-.624 5.352-1.872 6.984-1.248 1.632-3.276 2.448-6.084 2.448zm0-3.204c1.512 0 2.532-.444 3.06-1.332.528-.888.792-2.232.792-4.032v-12.78c0-1.776-.264-3.084-.792-3.924-.528-.864-1.548-1.296-3.06-1.296-1.536 0-2.568.432-3.096 1.296-.528.84-.792 2.148-.792 3.924v12.78c0 1.8.264 3.144.792 4.032.528.888 1.56 1.332 3.096 1.332zm20.18-26.28h11.304v3.024h-7.235v9.648h5.868v2.88h-5.868v10.692h7.308V43H82.037V13.84zm18.945 13.896L95.006 13.84h3.78l4.428 10.296 4.032-10.296h3.78l-6.12 14.22L111.314 43h-3.78l-4.752-10.98L98.678 43h-3.78l6.084-15.264zm13.083-13.896h7.236c2.52 0 4.344.684 5.472 2.052 1.152 1.368 1.728 3.372 1.728 6.012 0 2.376-.612 4.224-1.836 5.544-1.224 1.32-3 1.98-5.328 1.98h-3.204V43h-4.068V13.84zm5.94 12.672c1.2 0 2.124-.132 2.772-.396a2.524 2.524 0 001.44-1.368c.288-.648.432-1.584.432-2.808 0-1.488-.108-2.58-.324-3.276-.216-.696-.648-1.188-1.296-1.476-.624-.288-1.62-.432-2.988-.432h-1.908v9.756h1.872zm11.357-12.672h5.868c2.952 0 5.112.612 6.48 1.836 1.392 1.2 2.088 3.168 2.088 5.904 0 3.744-1.2 6.012-3.6 6.804L146.338 43h-3.924l-3.816-13.68h-3.168V43h-4.068V13.84zm5.616 12.564c1.752 0 3-.348 3.744-1.044.768-.696 1.152-1.956 1.152-3.78 0-1.2-.132-2.136-.396-2.808a2.638 2.638 0 00-1.404-1.512c-.672-.336-1.62-.504-2.844-.504h-1.8v9.648h1.548zM150.03 13.84h11.304v3.024h-7.236v9.648h5.868v2.88h-5.868v10.692h7.308V43H150.03V13.84zm21.536 29.484c-2.448 0-4.32-.756-5.616-2.268-1.272-1.512-1.98-3.588-2.124-6.228l3.6-.972c.12 1.872.48 3.384 1.08 4.536.624 1.152 1.644 1.728 3.06 1.728 1.056 0 1.848-.288 2.376-.864.552-.6.828-1.452.828-2.556 0-1.2-.252-2.196-.756-2.988-.504-.792-1.308-1.668-2.412-2.628l-4.896-4.32c-.984-.864-1.704-1.788-2.16-2.772-.432-1.008-.648-2.232-.648-3.672 0-2.136.612-3.792 1.836-4.968 1.224-1.176 2.892-1.764 5.004-1.764 2.304 0 4.044.612 5.22 1.836 1.176 1.224 1.884 3.12 2.124 5.688l-3.456.936c-.12-1.704-.456-3.012-1.008-3.924-.528-.936-1.488-1.404-2.88-1.404-1.032 0-1.824.276-2.376.828-.552.528-.828 1.32-.828 2.376 0 .864.144 1.596.432 2.196.288.576.78 1.164 1.476 1.764l4.932 4.32c1.272 1.128 2.28 2.352 3.024 3.672.768 1.32 1.152 2.82 1.152 4.5 0 2.136-.648 3.828-1.944 5.076-1.296 1.248-2.976 1.872-5.04 1.872zm17.016 0c-2.448 0-4.32-.756-5.616-2.268-1.272-1.512-1.98-3.588-2.124-6.228l3.6-.972c.12 1.872.48 3.384 1.08 4.536.624 1.152 1.644 1.728 3.06 1.728 1.056 0 1.848-.288 2.376-.864.552-.6.828-1.452.828-2.556 0-1.2-.252-2.196-.756-2.988-.504-.792-1.308-1.668-2.412-2.628l-4.896-4.32c-.984-.864-1.704-1.788-2.16-2.772-.432-1.008-.648-2.232-.648-3.672 0-2.136.612-3.792 1.836-4.968 1.224-1.176 2.892-1.764 5.004-1.764 2.304 0 4.044.612 5.22 1.836 1.176 1.224 1.884 3.12 2.124 5.688l-3.456.936c-.12-1.704-.456-3.012-1.008-3.924-.528-.936-1.488-1.404-2.88-1.404-1.032 0-1.824.276-2.376.828-.552.528-.828 1.32-.828 2.376 0 .864.144 1.596.432 2.196.288.576.78 1.164 1.476 1.764l4.932 4.32c1.272 1.128 2.28 2.352 3.024 3.672.768 1.32 1.152 2.82 1.152 4.5 0 2.136-.648 3.828-1.944 5.076-1.296 1.248-2.976 1.872-5.04 1.872z" fill="#fff"/><path d="M0 5.5h80m-80 43h80" stroke="#fff" stroke-width="3"/></svg>
